X:20
T:The Kesh Jig
M:6/8
Q:3/8=120
R:jig
K:G
"G"G2G GAB|"A"A2A ABd|"C"edd gdd|"D"edB dBA|
"G"G2G GAB|"A"A2A ABd|"C"edd gdd|"D"AGF G2D:|
|:"G"B2B dBd|"C"ege dBG|"G"B2B dBG|"Am"ABA AGA|
"Bm"BAB dBd|"Em"ege dBd|"C"g2g "D"aga|"G"bgf g3:|
%%newpage
